images/social/pinterest.svg

<svg width="23" height="23" viewBox="0 0 23 23" fill="none" xmlns="http://www.w3.org/2000/svg">
<path d="M11.04 0C4.94846 0 0 4.94846 0 11.04C0 17.1315 4.94846 22.08 11.04 22.08C17.1315 22.08 22.08 17.1315 22.08 11.04C22.08 4.94846 17.1315 0 11.04 0ZM11.04 0.96C16.6127 0.96 21.12 5.46728 21.12 11.04C21.12 16.6127 16.6127 21.12 11.04 21.12C10.0206 21.12 9.0373 20.9674 8.11031 20.6869C8.52323 19.9965 9.05633 19.0097 9.26812 18.195C9.39395 17.7119 9.91125 15.7416 9.91125 15.7416C10.2474 16.3834 11.2297 16.9266 12.2756 16.9266C15.3879 16.9266 17.6316 14.0643 17.6316 10.5075C17.6316 7.09753 14.849 4.54688 11.2688 4.54688C6.81448 4.54688 4.45031 7.5364 4.45031 10.7916C4.45031 12.3054 5.25548 14.1899 6.54469 14.79C6.73997 14.8809 6.84483 14.8415 6.88969 14.6522C6.92422 14.5085 7.09837 13.8081 7.17656 13.4822C7.20157 13.3782 7.18946 13.2883 7.10531 13.1859C6.67862 12.6684 6.33656 11.7177 6.33656 10.8309C6.33656 8.55458 8.0599 6.35156 10.9959 6.35156C13.5311 6.35156 15.3066 8.07978 15.3066 10.5506C15.3066 13.3422 13.897 15.2766 12.0628 15.2766C11.0499 15.2766 10.2914 14.4386 10.5347 13.4109C10.8264 12.1844 11.3897 10.8609 11.3897 9.975C11.3897 9.18274 10.9645 8.52187 10.0837 8.52187C9.04818 8.52187 8.21625 9.59254 8.21625 11.0278C8.21625 11.9411 8.52563 12.5597 8.52563 12.5597C8.52563 12.5597 7.50266 16.8847 7.31531 17.6897C7.12756 18.4941 7.17785 19.5775 7.25531 20.3841C3.56215 18.8892 0.96 15.2733 0.96 11.04C0.96 5.46728 5.46728 0.96 11.04 0.96Z" fill="#FEFAFA"/>
</svg>

<svg width="23" height="23" fill="none" xmlns="http://www.w3.org/2000/svg"><path d="M11.04 0C4.9485 0 0 4.9485 0 11.04c0 6.0915 4.9485 11.04 11.04 11.04 6.0915 0 11.04-4.9485 11.04-11.04C22.08 4.9485 17.1315 0 11.04 0Zm0 .96c5.5727 0 10.08 4.5073 10.08 10.08s-4.5073 10.08-10.08 10.08a10.0996 10.0996 0 0 1-2.9297-.4331c.413-.6904.946-1.6772 1.1578-2.4919.1258-.4831.6432-2.4534.6432-2.4534.3361.6418 1.3184 1.185 2.3643 1.185 3.1123 0 5.356-2.8623 5.356-6.4191 0-3.41-2.7826-5.9606-6.3628-5.9606-4.4543 0-6.8185 2.9895-6.8185 6.2447 0 1.5138.8052 3.3983 2.0944 3.9984.1953.0909.3001.0515.345-.1378.0345-.1437.2087-.8441.2869-1.17.025-.104.0129-.1939-.0713-.2963-.4267-.5175-.7687-1.4682-.7687-2.355 0-2.2763 1.7233-4.4793 4.6593-4.4793 2.5352 0 4.3107 1.7282 4.3107 4.199 0 2.7916-1.4096 4.726-3.2438 4.726-1.0129 0-1.7714-.838-1.5281-1.8657.2917-1.2265.855-2.55.855-3.4359 0-.7923-.4252-1.4531-1.306-1.4531-1.0355 0-1.8674 1.0706-1.8674 2.5059 0 .9133.3093 1.5319.3093 1.5319s-1.023 4.325-1.2103 5.13c-.1877.8044-.1374 1.8878-.06 2.6944C3.5621 18.8892.96 15.2733.96 11.04.96 5.4673 5.4673.96 11.04.96Z" fill="#FEFAFA"/></svg>
